**harmony	**harte	**kern	**silbe	**kern	**silbe	**rhyme	**timestamp	**phrase
*M4/4	*M4/4	*ICvox	*	*ICvox	*	*	*	*
*	*	*VRlead	*	*VRharmonize*VRbacking*VRresponse	*	*	*	*
*	*	*Hstimme	*	*Nstimme	*	*	*	*
*a:	*a:	*a:	*	*a:	*	*	*a:	*a:
*	*	*M4/4	*	*M4/4	*	*	*	*
*	*	*clefG2	*	*clefG2	*	*	*	*
1r;	1r	r;	.	r;	.	.	0	.
=1	=1	=1	=1	=1	=1	=1	=1	=1
*>Letter>A	*>Letter>A	*>Letter>A	*>Letter>A	*>Letter>A	*>Letter>A	*>Letter>A	*>Letter>A	*>Letter>A
*>Label>Intro	*>Label>Intro	*>Label>Intro	*>Label>Intro	*>Label>Intro	*>Label>Intro	*>Label>Intro	*>Label>Intro	*>Label>Intro
2Am	A:min/4	1r	.	1r	.	.	1.23	newline
2Am	A:min	.	.	.	.	.	2.127	.
=2	=2	=2	=2	=2	=2	=2	=2	=2
2GM	G:maj	1r	.	1r	.	.	3.024	.
2Am	A:min	.	.	.	.	.	3.921	.
=3	=3	=3	=3	=3	=3	=3	=3	=3
2Am	A:min/4	1r	.	1r	.	.	4.818	.
2Am	A:min	.	.	.	.	.	5.715	.
=4	=4	=4	=4	=4	=4	=4	=4	=4
2GM	G:maj	1r	.	1r	.	.	6.613	.
2Am	A:min	.	.	.	.	.	7.51	.
=5	=5	=5	=5	=5	=5	=5	=5	=5
2Am	A:min/4	1r	.	1r	.	.	8.407	newline
2Am	A:min	.	.	.	.	.	9.313	.
=6	=6	=6	=6	=6	=6	=6	=6	=6
2GM	G:maj	1r	.	1r	.	.	10.22	.
2Am	A:min	.	.	.	.	.	11.126	.
=7	=7	=7	=7	=7	=7	=7	=7	=7
2Am	A:min/4	1r	.	1r	.	.	12.033	.
2Am	A:min	.	.	.	.	.	12.939	.
=8	=8	=8	=8	=8	=8	=8	=8	=8
2GM	G:maj	2.r	.	1r	.	.	13.846	.
2Am	A:min	.	.	.	.	.	14.752	.
.	.	8A	She's	.	.	.	.	.
.	.	8c	a	.	.	.	.	.
=9	=9	=9	=9	=9	=9	=9	=9	=9
*>Letter>A	*>Letter>A	*>Letter>A	*>Letter>A	*>Letter>A	*>Letter>A	*>Letter>A	*>Letter>A	*>Letter>A
*>Label>Verse	*>Label>Verse	*>Label>Verse	*>Label>Verse	*>Label>Verse	*>Label>Verse	*>Label>Verse	*>Label>Verse	*>Label>Verse
2Am	A:min/4	8e	ve-	1r	.	.	15.659	newline
.	.	8e	-ry	.	.	.	.	.
.	.	8d	kink-	.	.	.	.	.
.	.	8c	-y	.	.	.	.	.
2Am	A:min	[2c	girl	.	.	.	16.573	.
=10	=10	=10	=10	=10	=10	=10	=10	=10
2GM	G:maj	8c]	_	1r	.	.	17.487	.
.	.	8r	.	.	.	.	.	.
.	.	4r	.	.	.	.	.	.
2Am	A:min	8r	.	.	.	.	18.401	.
.	.	8A	The	.	.	.	.	.
.	.	8A	kind	.	.	.	.	.
.	.	8c	you	.	.	.	.	.
=11	=11	=11	=11	=11	=11	=11	=11	=11
2Am	A:min/4	8e	don't	1r	.	.	19.315	.
.	.	8f#	take	.	.	.	.	.
.	.	8e	home	.	.	.	.	.
.	.	8c	to	.	.	.	.	.
2Am	A:min	8c	mo-	.	.	.	20.228	.
.	.	[4.e	-ther	.	.	.	.	.
=12	=12	=12	=12	=12	=12	=12	=12	=12
2GM	G:maj	8e]	_	1r	.	.	21.142	.
.	.	8r	.	.	.	.	.	.
.	.	4r	.	.	.	.	.	.
2Am	A:min	4r	.	.	.	.	22.056	.
.	.	8e	She	.	.	.	.	.
.	.	8g	will	.	.	.	.	.
=13	=13	=13	=13	=13	=13	=13	=13	=13
2Am	A:min/4	8a	ne-	1r	.	.	22.97	newline
.	.	8a	-ver	.	.	.	.	.
.	.	8e	let	.	.	.	.	.
.	.	8d	your	.	.	.	.	.
2Am	A:min	8e	spi-	.	.	.	23.892	.
.	.	8d	-rits	.	.	.	.	.
.	.	8d	down	.	.	.	.	.
.	.	[8c	_	.	.	.	.	.
=14	=14	=14	=14	=14	=14	=14	=14	=14
2GM	G:maj	2c]	_	1r	.	.	24.814	.
2Am	A:min	4r	.	.	.	.	25.736	.
.	.	8A	once	.	.	.	.	.
.	.	8G	you	.	.	.	.	.
=15	=15	=15	=15	=15	=15	=15	=15	=15
2Am	A:min/4	16A	get	1r	.	.	26.658	.
.	.	8G	her	.	.	.	.	.
.	.	8.A	off	.	.	.	.	.
.	.	8G	the	.	.	.	.	.
2Am	A:min	4d	street	.	.	.	27.58	.
.	.	4r	.	.	.	.	.	.
=16	=16	=16	=16	=16	=16	=16	=16	=16
2GM	G:maj	2r	.	1r	.	.	28.503	.
2Am	A:min	8r	.	.	.	.	29.425	.
.	.	8A	She	.	.	.	.	.
.	.	8A	likes	.	.	.	.	.
.	.	8c	the	.	.	.	.	.
=17	=17	=17	=17	=17	=17	=17	=17	=17
2Am	A:min/4	4e	boys	1r	.	.	30.347	newline
.	.	8d	in	.	.	.	.	.
.	.	8c	the	.	.	.	.	.
2Am	A:min	16d	band.	.	.	.	31.261	.
.	.	[8.c	_	.	.	.	.	.
.	.	4c]	_	.	.	.	.	.
=18	=18	=18	=18	=18	=18	=18	=18	=18
2GM	G:maj	2r	.	1r	.	.	32.176	.
2Am	A:min	8r	.	.	.	.	33.091	.
.	.	8A	She	.	.	.	.	.
.	.	8A	says	.	.	.	.	.
.	.	8c	that	.	.	.	.	.
=19	=19	=19	=19	=19	=19	=19	=19	=19
2Am	A:min/4	8e	I'm	1r	.	.	34.006	.
.	.	8f#	their	.	.	.	.	.
.	.	8e	all	.	.	.	.	.
.	.	8c	time	.	.	.	.	.
2Am	A:min	8c	favor-	.	.	.	34.921	.
.	.	[4.e	-ite.	.	.	.	.	.
=20	=20	=20	=20	=20	=20	=20	=20	=20
2GM	G:maj	8e]	_	1r	.	.	35.835	.
.	.	8r	.	.	.	.	.	.
.	.	4r	.	.	.	.	.	.
2Am	A:min	4r	.	.	.	.	36.75	.
.	.	8e	When	.	.	.	.	.
.	.	8g	I	.	.	.	.	.
=21	=21	=21	=21	=21	=21	=21	=21	=21
2Am	A:min/4	8a	make	1r	.	.	37.665	newline
.	.	8a	my	.	.	.	.	.
.	.	8e	move	.	.	.	.	.
.	.	8d	to	.	.	.	.	.
2Am	A:min	8g	her	.	.	.	38.576	.
.	.	8e	room	.	.	.	.	.
.	.	8d	it's	.	.	.	.	.
.	.	8c	the	.	.	.	.	.
=22	=22	=22	=22	=22	=22	=22	=22	=22
2GM	G:maj	4d	right	1r	.	.	39.487	.
.	.	2c	time	.	.	.	.	.
2Am	A:min	.	.	.	.	.	40.397	.
.	.	8r	.	.	.	.	.	.
.	.	8G	She's	.	.	.	.	.
=23	=23	=23	=23	=23	=23	=23	=23	=23
2Am	A:min/4	16A	ne-	1r	.	.	41.308	.
.	.	8G	-ver	.	.	.	.	.
.	.	8A	hard	.	.	.	.	.
.	.	8G	to	.	.	.	.	.
.	.	[16d	please	.	.	.	.	.
2Am	A:min	2d]	_	.	.	.	42.219	.
=24	=24	=24	=24	=24	=24	=24	=24	=24
2GM	G:maj	2r	.	1r	.	.	43.13	.
2Am	A:min	4.r	.	.	.	.	44.041	.
.	.	8G	That	.	.	.	.	.
=25	=25	=25	=25	=25	=25	=25	=25	=25
*>Letter>B	*>Letter>B	*>Letter>B	*>Letter>B	*>Letter>B	*>Letter>B	*>Letter>B	*>Letter>B	*>Letter>B
*>Label>Chorus	*>Label>Chorus	*>Label>Chorus	*>Label>Chorus	*>Label>Chorus	*>Label>Chorus	*>Label>Chorus	*>Label>Chorus	*>Label>Chorus
2Am	A:min/4	8A	girl	1r	.	.	44.952	newline
.	.	8G	is	.	.	.	.	.
.	.	16A	pre-	.	.	.	.	.
.	.	8G	-tty	.	.	.	.	.
.	.	8.d	wild	.	.	.	.	.
2Am	A:min	.	.	.	.	.	45.871	.
.	.	4.c	now	.	.	A	.	.
=26	=26	=26	=26	=26	=26	=26	=26	=26
2GM	G:maj/b7	2r	.	1r	.	.	46.79	.
2Am	A:min	4.r	.	.	.	.	47.709	.
.	.	8G	The	.	.	.	.	.
=27	=27	=27	=27	=27	=27	=27	=27	=27
2Am	A:min/4	8A	kin-	1r	.	.	48.629	.
.	.	16G	-da	.	.	.	.	.
.	.	8A	girl	.	.	.	.	.
.	.	16G	you	.	.	.	.	.
.	.	16d	read	.	.	.	.	.
.	.	8.d	a-	.	.	.	.	.
2Am	A:min	.	.	.	.	.	49.548	.
.	.	4.c	-bout	.	.	A	.	.
=28	=28	=28	=28	=28	=28	=28	=28	=28
2GM	G:maj/b7	2r	.	1r	.	.	50.467	.
2Am	A:min	4.r	.	.	.	.	51.386	.
.	.	8G	That	.	.	.	.	.
=29	=29	=29	=29	=29	=29	=29	=29	=29
2Am	A:min/4	8A	girl	1r	.	.	52.305	newline
.	.	8G	is	.	.	.	.	.
.	.	16A	pre-	.	.	.	.	.
.	.	8G	-tty	.	.	.	.	.
.	.	8.d	kink-	.	.	.	.	.
2Am	A:min	.	.	.	.	.	53.22	.
.	.	4.c	-y	.	.	.	.	.
=30	=30	=30	=30	=30	=30	=30	=30	=30
2GM	G:maj/b7	2r	.	1r	.	.	54.134	.
2Am	A:min	4.r	.	.	.	.	55.049	.
.	.	8G	I'd	.	.	.	.	.
=31	=31	=31	=31	=31	=31	=31	=31	=31
2Am	A:min/4	8A	real-	1r	.	.	55.963	.
.	.	16G	-ly	.	.	.	.	.
.	.	8A	love	.	.	.	.	.
.	.	16G	to	.	.	.	.	.
.	.	4d	taste	.	.	.	.	.
2Am	A:min	.	.	.	.	.	56.878	.
.	.	4.c	her	.	.	.	.	.
=32	=32	=32	=32	=32	=32	=32	=32	=32
2GM	G:maj/b7	1r	.	1r	.	.	57.792	.
2Am	A:min	.	.	.	.	.	58.707	.
=33	=33	=33	=33	=33	=33	=33	=33	=33
*>Letter>C	*>Letter>C	*>Letter>C	*>Letter>C	*>Letter>C	*>Letter>C	*>Letter>C	*>Letter>C	*>Letter>C
*>Label>Bridge	*>Label>Bridge	*>Label>Bridge	*>Label>Bridge	*>Label>Bridge	*>Label>Bridge	*>Label>Bridge	*>Label>Bridge	*>Label>Bridge
4FM	F:maj	4a	She's	1r	.	.	59.621	newline
4GM	G:maj	4g	al-	.	.	.	60.078	.
2Amm	A:min7	16e	-right	.	.	.	60.535	.
.	.	16d	_	.	.	.	.	.
.	.	8c	_	.	.	.	.	.
.	.	4r	.	.	.	.	.	.
=34	=34	=34	=34	=34	=34	=34	=34	=34
4FM	F:maj	4a	She's	1r	.	.	61.448	.
4GM	G:maj	8.g	al-	.	.	.	61.905	.
.	.	[16a	-right	.	.	.	.	.
2Amm	A:min7	4a]	_	.	.	.	62.362	.
.	.	8r	.	.	.	.	.	.
.	.	8a	That	.	.	.	.	.
=35	=35	=35	=35	=35	=35	=35	=35	=35
4FM	F:maj	8r	.	1r	.	.	63.275	.
.	.	8cc	girl's	.	.	.	.	.
4GM	G:maj	8a	_	.	.	.	63.732	.
.	.	8a	all	.	.	.	.	.
2Amm	A:min7	8g	_	.	.	.	64.189	.
.	.	8g	right	.	.	.	.	.
.	.	8e	_	.	.	.	.	.
.	.	[8d	_	.	.	.	.	.
=36	=36	=36	=36	=36	=36	=36	=36	=36
1Am	A:min	8d]	_	1r	.	.	65.102	newline
.	.	4d	with	.	.	.	.	.
.	.	[8c	me	.	.	.	.	.
.	.	2c_	_	.	.	.	.	.
=37	=37	=37	=37	=37	=37	=37	=37	=37
1Am	A:min	2c]	_	1r	.	.	66.83	.
.	.	4.r	.	.	.	.	.	.
.	.	[8d	Yeah	.	.	.	.	.
=38	=38	=38	=38	=38	=38	=38	=38	=38
1Am	A:min/b6	8d]	_	1r	.	.	68.558	.
.	.	8c	_	.	.	.	.	.
.	.	2A	_	.	.	.	.	.
.	.	4r	.	.	.	.	.	.
=39	=39	=39	=39	=39	=39	=39	=39	=39
1AM	A:maj/5	8r	.	1r	.	.	70.286	.
.	.	8g	Heh	.	.	.	.	.
.	.	8g	heh	.	.	.	.	.
.	.	8r	.	.	.	.	.	.
.	.	8a	heh	.	.	.	.	.
.	.	8r	.	.	.	.	.	.
.	.	4cc	hey!	.	.	.	.	.
=40	=40	=40	=40	=40	=40	=40	=40	=40
*>Letter>A	*>Letter>A	*>Letter>A	*>Letter>A	*>Letter>A	*>Letter>A	*>Letter>A	*>Letter>A	*>Letter>A
*>Label>Interlude	*>Label>Interlude	*>Label>Interlude	*>Label>Interlude	*>Label>Interlude	*>Label>Interlude	*>Label>Interlude	*>Label>Interlude	*>Label>Interlude
2Am	A:min/4	1r	.	1r	.	.	72.446	newline
2Am	A:min	.	.	.	.	.	73.364	.
=41	=41	=41	=41	=41	=41	=41	=41	=41
2GM	G:maj	2.r	.	1r	.	.	74.281	.
2Am	A:min	.	.	.	.	.	75.198	.
.	.	8g	She's	.	.	.	.	.
.	.	8g	a	.	.	.	.	.
=42	=42	=42	=42	=42	=42	=42	=42	=42
2Am	A:min/4	8g	sup-	1r	.	.	76.115	.
.	.	8g	-er	.	.	.	.	.
.	.	8a	freak	.	.	.	.	.
.	.	8r	.	.	.	.	.	.
2Am	A:min	8r	.	.	.	.	77.033	.
.	.	8g	sup-	.	.	.	.	.
.	.	8g	-er	.	.	.	.	.
.	.	8a	freak	.	.	.	.	.
=43	=43	=43	=43	=43	=43	=43	=43	=43
2GM	G:maj	8r	.	1r	.	.	77.95	.
.	.	8d	She's	.	.	.	.	.
.	.	8d	sup-	.	.	.	.	.
.	.	8c	-er	.	.	.	.	.
2Am	A:min	8e	freak-	.	.	.	78.867	.
.	.	4.c	-y	.	.	.	.	.
=44	=44	=44	=44	=44	=44	=44	=44	=44
2Am	A:min/4	4A	yaow	1r	.	.	79.784	newline
.	.	4r	.	.	.	.	.	.
2Am	A:min	2r	.	.	.	.	80.705	.
=45	=45	=45	=45	=45	=45	=45	=45	=45
2GM	G:maj	1r	.	1r	.	.	81.625	.
2Am	A:min	.	.	.	.	.	82.545	.
=46	=46	=46	=46	=46	=46	=46	=46	=46
2Am	A:min/4	8g	sup-	1r	.	.	83.465	.
.	.	8g	-er	.	.	.	.	.
.	.	8a	freak	.	.	.	.	.
.	.	8r	.	.	.	.	.	.
2Am	A:min	8r	.	.	.	.	84.385	.
.	.	8g	sup-	.	.	.	.	.
.	.	8g	-er	.	.	.	.	.
.	.	8a	freak	.	.	.	.	.
=47	=47	=47	=47	=47	=47	=47	=47	=47
2GM	G:maj	2.r	.	1r	.	.	85.305	.
2Am	A:min	.	.	.	.	.	86.225	.
.	.	8A	She's	.	.	.	.	.
.	.	8c	a	.	.	.	.	.
=48	=48	=48	=48	=48	=48	=48	=48	=48
*>Letter>A	*>Letter>A	*>Letter>A	*>Letter>A	*>Letter>A	*>Letter>A	*>Letter>A	*>Letter>A	*>Letter>A
*>Label>Verse	*>Label>Verse	*>Label>Verse	*>Label>Verse	*>Label>Verse	*>Label>Verse	*>Label>Verse	*>Label>Verse	*>Label>Verse
2Am	A:min/4	8e	ve-	1r	.	.	87.145	newline
.	.	8e	-ry	.	.	.	.	.
.	.	8d	spe-	.	.	.	.	.
.	.	8c	-cial	.	.	.	.	.
2Am	A:min	[2c	girl	.	.	.	88.059	.
=49	=49	=49	=49	=49	=49	=49	=49	=49
2GM	G:maj	4c]	_	1r	.	.	88.972	.
.	.	4r	.	.	.	.	.	.
2Am	A:min	4r	.	.	.	.	89.886	.
.	.	8A	From	.	.	.	.	.
.	.	8c	her	.	.	.	.	.
=50	=50	=50	=50	=50	=50	=50	=50	=50
2Am	A:min/4	8e	head	1r	.	.	90.799	.
.	.	8f#	down	.	.	.	.	.
.	.	8e	to	.	.	.	.	.
.	.	8c	her	.	.	.	.	.
2Am	A:min	8c	toe-	.	.	.	91.712	.
.	.	[4.e	-nails	.	.	.	.	.
=51	=51	=51	=51	=51	=51	=51	=51	=51
2GM	G:maj	4e]	_	1r	.	.	92.626	.
.	.	4r	.	.	.	.	.	.
2Am	A:min	4r	.	.	.	.	93.539	.
.	.	8e	Yeah	.	.	.	.	.
.	.	8g	she'll	.	.	.	.	.
=52	=52	=52	=52	=52	=52	=52	=52	=52
2Am	A:min/4	8a	wait	1r	.	.	94.453	newline
.	.	8a	for	.	.	.	.	.
.	.	8e	me	.	.	.	.	.
.	.	8d	at	.	.	.	.	.
2Am	A:min	8e	back-	.	.	.	95.368	.
.	.	8d	-stage	.	.	.	.	.
.	.	8d	with	.	.	.	.	.
.	.	8c	her	.	.	.	.	.
=53	=53	=53	=53	=53	=53	=53	=53	=53
2GM	G:maj	4d	girl-	1r	.	.	96.283	.
.	.	2c	-friends	.	.	.	.	.
2Am	A:min	.	.	.	.	.	97.199	.
.	.	4r	.	.	.	.	.	.
=54	=54	=54	=54	=54	=54	=54	=54	=54
2Am	A:min/4	16A	in	1r	.	.	98.114	.
.	.	8G	a	.	.	.	.	.
.	.	16A	lim-	.	.	.	.	.
.	.	8G	-ou-	.	.	.	.	.
.	.	4.d	-sine	.	.	B	.	.
2Am	A:min	.	.	.	.	.	99.029	.
.	.	4r	.	.	.	.	.	.
=55	=55	=55	=55	=55	=55	=55	=55	=55
2GM	G:maj	2r	.	1r	.	.	99.945	.
2Am	A:min	8r	.	.	.	.	100.86	.
.	.	8A	Three's	.	.	.	.	.
.	.	8A	not	.	.	.	.	.
.	.	8c	a	.	.	.	.	.
=56	=56	=56	=56	=56	=56	=56	=56	=56
2Am	A:min/4	4e	crowd	1r	.	.	101.776	newline
.	.	8f	to	.	.	.	.	.
.	.	8.e	her	.	.	.	.	.
2Am	A:min	.	.	.	.	.	102.693	.
.	.	8.d	she	.	.	.	.	.
.	.	[4e	says	.	.	.	.	.
=57	=57	=57	=57	=57	=57	=57	=57	=57
2GM	G:maj	4e]	_	1r	.	.	103.611	.
.	.	4r	.	.	.	.	.	.
2Am	A:min	8r	.	.	.	.	104.528	.
.	.	8A	Room	.	.	.	.	.
.	.	8A	se-	.	.	.	.	.
.	.	8c	-ven	.	.	.	.	.
=58	=58	=58	=58	=58	=58	=58	=58	=58
2Am	A:min/4	8e	four-	1r	.	.	105.446	.
.	.	8f	-teen	.	.	B	.	.
.	.	8e	I'll	.	.	.	.	.
.	.	8c	be	.	.	.	.	.
2Am	A:min	8c	wai-	.	.	.	106.364	.
.	.	4.e	-ting	.	.	B	.	.
=59	=59	=59	=59	=59	=59	=59	=59	=59
2GM	G:maj	2r	.	1r	.	.	107.281	.
2Am	A:min	4r	.	.	.	.	108.199	.
.	.	8e	When	.	.	.	.	.
.	.	8g	I	.	.	.	.	.
=60	=60	=60	=60	=60	=60	=60	=60	=60
2Am	A:min/4	8a	get	1r	.	.	109.117	newline
.	.	8a	there	.	.	.	.	.
.	.	8e	she's	.	.	.	.	.
.	.	8f	got	.	.	.	.	.
2Am	A:min	8g	in-	.	.	.	110.031	.
.	.	8e	-cense	.	.	.	.	.
.	.	8d	wine	.	.	.	.	.
.	.	8c	and	.	.	.	.	.
=61	=61	=61	=61	=61	=61	=61	=61	=61
2GM	G:maj	4d	can-	1r	.	.	110.945	.
.	.	2c	-dles	.	.	.	.	.
2Am	A:min	.	.	.	.	.	111.86	.
.	.	8r	.	.	.	.	.	.
.	.	8G	It's	.	.	.	.	.
=62	=62	=62	=62	=62	=62	=62	=62	=62
2Am	A:min/4	16A	such	1r	.	.	112.774	.
.	.	8.G	a	.	.	.	.	.
.	.	8A	frea-	.	.	.	.	.
.	.	8G	-ky	.	.	.	.	.
2Am	A:min	2d	scene	.	.	B	113.688	.
=63	=63	=63	=63	=63	=63	=63	=63	=63
2GM	G:maj	2r	.	1r	.	.	114.603	.
2Am	A:min	4.r	.	.	.	.	115.517	.
.	.	8G	That	.	.	.	.	.
=64	=64	=64	=64	=64	=64	=64	=64	=64
*>Letter>B	*>Letter>B	*>Letter>B	*>Letter>B	*>Letter>B	*>Letter>B	*>Letter>B	*>Letter>B	*>Letter>B
*>Label>Chorus	*>Label>Chorus	*>Label>Chorus	*>Label>Chorus	*>Label>Chorus	*>Label>Chorus	*>Label>Chorus	*>Label>Chorus	*>Label>Chorus
2Am	A:min/4	8A	girl	1r	.	.	116.431	newline
.	.	8G	is	.	.	.	.	.
.	.	16A	pre-	.	.	.	.	.
.	.	8G	-tty	.	.	.	.	.
.	.	8.d	kink-	.	.	.	.	.
2Am	A:min	.	.	.	.	.	117.348	.
.	.	4.c	-y	.	.	b	.	.
=65	=65	=65	=65	=65	=65	=65	=65	=65
2GM	G:maj/b7	2r	.	1r	.	.	118.265	.
2Am	A:min	4.r	.	.	.	.	119.182	.
.	.	8G	The	.	.	.	.	.
=66	=66	=66	=66	=66	=66	=66	=66	=66
2Am	A:min/4	16A	kin-	1r	.	.	120.099	.
.	.	8G	-da	.	.	.	.	.
.	.	8A	girl	.	.	.	.	.
.	.	16G	you	.	.	.	.	.
.	.	16d	read	.	.	.	.	.
.	.	8.d	a-	.	.	.	.	.
2Am	A:min	.	.	.	.	.	121.016	.
.	.	4.c	-bout	.	.	A	.	.
=67	=67	=67	=67	=67	=67	=67	=67	=67
2GM	G:maj/b7	2r	.	1r	.	.	121.933	.
2Am	A:min	4.r	.	.	.	.	122.85	.
.	.	8G	That	.	.	.	.	.
=68	=68	=68	=68	=68	=68	=68	=68	=68
2Am	A:min/4	8A	girl	1r	.	.	123.767	newline
.	.	8G	is	.	.	.	.	.
.	.	16A	pre-	.	.	.	.	.
.	.	8G	-tty	.	.	.	.	.
.	.	8.d	wild	.	.	.	.	.
2Am	A:min	.	.	.	.	.	124.676	.
.	.	4.c	now	.	.	A	.	.
=69	=69	=69	=69	=69	=69	=69	=69	=69
2GM	G:maj/b7	2r	.	1r	.	.	125.586	.
2Am	A:min	4.r	.	.	.	.	126.496	.
.	.	8G	I'd	.	.	.	.	.
=70	=70	=70	=70	=70	=70	=70	=70	=70
2Am	A:min/4	8A	real-	1r	.	.	127.406	.
.	.	16G	-ly	.	.	.	.	.
.	.	8A	like	.	.	.	.	.
.	.	16G	to	.	.	.	.	.
.	.	4d	taste	.	.	.	.	.
2Am	A:min	.	.	.	.	.	128.315	.
.	.	8c	her	.	.	.	.	.
.	.	4r	.	.	.	.	.	.
=71	=71	=71	=71	=71	=71	=71	=71	=71
2GM	G:maj/b7	1r	.	1r	.	.	129.225	.
2Am	A:min	.	.	.	.	.	130.135	.
=72	=72	=72	=72	=72	=72	=72	=72	=72
*>Letter>C	*>Letter>C	*>Letter>C	*>Letter>C	*>Letter>C	*>Letter>C	*>Letter>C	*>Letter>C	*>Letter>C
*>Label>Bridge	*>Label>Bridge	*>Label>Bridge	*>Label>Bridge	*>Label>Bridge	*>Label>Bridge	*>Label>Bridge	*>Label>Bridge	*>Label>Bridge
4FM	F:maj	4a	She's	1r	.	.	131.044	newline
4GM	G:maj	4g	al-	.	.	.	131.504	.
2Amm	A:min7	16e	-right	.	.	.	131.963	.
.	.	16d	_	.	.	.	.	.
.	.	8c	_	.	.	.	.	.
.	.	4r	.	.	.	.	.	.
=73	=73	=73	=73	=73	=73	=73	=73	=73
4FM	F:maj	4a	She's	1r	.	.	132.881	.
4GM	G:maj	8.g	al-	.	.	.	133.34	.
.	.	8.a	-right	.	.	.	.	.
2Amm	A:min7	.	.	.	.	.	133.799	.
.	.	8r	.	.	.	.	.	.
.	.	8r	.	.	.	.	.	.
.	.	8a	That	.	.	.	.	.
=74	=74	=74	=74	=74	=74	=74	=74	=74
4FM	F:maj	8r	.	1r	.	.	134.717	.
.	.	8cc	girl's	.	.	.	.	.
4GM	G:maj	8a	_	.	.	.	135.176	.
.	.	8a	all	.	.	.	.	.
2Amm	A:min7	8g	_	.	.	.	135.635	.
.	.	8g	right	.	.	.	.	.
.	.	8e	_	.	.	.	.	.
.	.	[8d	_	.	.	.	.	.
=75	=75	=75	=75	=75	=75	=75	=75	=75
1Am	A:min	8d]	_	1r	.	.	136.554	newline
.	.	4d	with	.	.	.	.	.
.	.	[8c	me	.	.	.	.	.
.	.	2c_	_	.	.	.	.	.
=76	=76	=76	=76	=76	=76	=76	=76	=76
1Am	A:min	2c]	_	1r	.	.	138.281	.
.	.	4.r	.	.	.	.	.	.
.	.	[8d	Yeah	.	.	.	.	.
=77	=77	=77	=77	=77	=77	=77	=77	=77
1Am	A:min/b6	8d]	_	1r	.	.	140.008	.
.	.	8c	_	.	.	.	.	.
.	.	2A	_	.	.	.	.	.
.	.	4r	.	.	.	.	.	.
=78	=78	=78	=78	=78	=78	=78	=78	=78
1AM	A:maj/5	8r	.	1r	.	.	141.735	.
.	.	8g	Heh	.	.	.	.	.
.	.	8g	heh	.	.	.	.	.
.	.	8r	.	.	.	.	.	.
.	.	8a	heh	.	.	.	.	.
.	.	8r	.	.	.	.	.	.
.	.	4cc	hey!	.	.	.	.	.
=79	=79	=79	=79	=79	=79	=79	=79	=79
*>Letter>A	*>Letter>A	*>Letter>A	*>Letter>A	*>Letter>A	*>Letter>A	*>Letter>A	*>Letter>A	*>Letter>A
*>Label>Interlude	*>Label>Interlude	*>Label>Interlude	*>Label>Interlude	*>Label>Interlude	*>Label>Interlude	*>Label>Interlude	*>Label>Interlude	*>Label>Interlude
2Am	A:min/4	1r	.	1r	.	.	143.894	newline
2Am	A:min	.	.	.	.	.	144.813	.
=80	=80	=80	=80	=80	=80	=80	=80	=80
2GM	G:maj	2.r	.	1r	.	.	145.733	.
2Am	A:min	.	.	.	.	.	146.652	.
.	.	8g	She's	.	.	.	.	.
.	.	8g	a	.	.	.	.	.
=81	=81	=81	=81	=81	=81	=81	=81	=81
2Am	A:min/4	8g	sup-	1r	.	.	147.572	.
.	.	8g	-er	.	.	.	.	.
.	.	8a	freak	.	.	.	.	.
.	.	8r	.	.	.	.	.	.
2Am	A:min	8r	.	.	.	.	148.491	.
.	.	8g	sup-	.	.	.	.	.
.	.	8g	-er	.	.	.	.	.
.	.	8a	freak	.	.	.	.	.
=82	=82	=82	=82	=82	=82	=82	=82	=82
2GM	G:maj	8r	.	1r	.	.	149.411	.
.	.	8d	She's	.	.	.	.	.
.	.	8d	sup-	.	.	.	.	.
.	.	8c	-er	.	.	.	.	.
2Am	A:min	8e	freak-	.	.	.	150.33	.
.	.	4.c	-y	.	.	.	.	.
=83	=83	=83	=83	=83	=83	=83	=83	=83
2Am	A:min/4	4A	yaow	1r	.	.	151.25	newline
.	.	4r	.	.	.	.	.	.
2Am	A:min	2r	.	.	.	.	152.172	.
=84	=84	=84	=84	=84	=84	=84	=84	=84
2GM	G:maj	4.r	.	1r	.	.	153.094	.
.	.	8a	Temp-	.	.	.	.	.
2Am	A:min	8a	-ta-	.	.	.	154.017	.
.	.	8g	-tions	.	.	.	.	.
.	.	4a	sing	.	.	.	.	.
=85	=85	=85	=85	=85	=85	=85	=85	=85
2Am	A:min/4	1r	.	4A	Oh	.	154.939	.
.	.	.	.	4c	_	.	.	.
2Am	A:min	.	.	4d	_	.	155.862	.
.	.	.	.	4e	_	.	.	.
=86	=86	=86	=86	=86	=86	=86	=86	=86
2GM	G:maj	1r	.	4d	_	.	156.784	.
.	.	.	.	4c	_	.	.	.
2Am	A:min	.	.	4A	_	.	157.707	.
.	.	.	.	4A	_	.	.	.
=87	=87	=87	=87	=87	=87	=87	=87	=87
2Am	A:min/4	8g	Sup-	2A	_	.	158.629	newline
.	.	8g	-er	.	.	.	.	.
.	.	8a	freak	.	.	.	.	.
.	.	8r	.	.	.	.	.	.
2Am	A:min	8r	.	2r	.	.	159.543	.
.	.	8g	sup-	.	.	.	.	.
.	.	8g	-er	.	.	.	.	.
.	.	8a	freak	.	.	.	.	.
=88	=88	=88	=88	=88	=88	=88	=88	=88
2GM	G:maj	8r	.	1r	.	.	160.456	.
.	.	8g	The	.	.	.	.	.
.	.	8g	girl's	.	.	.	.	.
.	.	8g	a	.	.	.	.	.
2Am	A:min	8g	sup-	.	.	.	161.37	.
.	.	8g	-er	.	.	.	.	.
.	.	8a	freak	.	.	.	.	.
.	.	8r	.	.	.	.	.	.
=89	=89	=89	=89	=89	=89	=89	=89	=89
2Am	A:min/4	1r	.	4A	Oh	.	162.283	.
.	.	.	.	4c	_	.	.	.
2Am	A:min	.	.	4d	_	.	163.197	.
.	.	.	.	4e	_	.	.	.
=90	=90	=90	=90	=90	=90	=90	=90	=90
2GM	G:maj	2.r	.	4d	_	.	164.11	.
.	.	.	.	4c	_	.	.	.
2Am	A:min	.	.	[2A	_	.	165.024	.
.	.	8A	She's	.	.	.	.	.
.	.	8c	a	.	.	.	.	.
=91	=91	=91	=91	=91	=91	=91	=91	=91
*>Letter>A	*>Letter>A	*>Letter>A	*>Letter>A	*>Letter>A	*>Letter>A	*>Letter>A	*>Letter>A	*>Letter>A
*>Label>Verse	*>Label>Verse	*>Label>Verse	*>Label>Verse	*>Label>Verse	*>Label>Verse	*>Label>Verse	*>Label>Verse	*>Label>Verse
2Am	A:min/4	8e	ve-	2A]	_	.	165.937	newline
.	.	8e	-ry	.	.	.	.	.
.	.	8d	kink-	.	.	.	.	.
.	.	8c	-y	.	.	.	.	.
2Am	A:min	[2c	girl	2r	.	.	166.848	.
=92	=92	=92	=92	=92	=92	=92	=92	=92
2GM	G:maj	4c]	_	1r	.	.	167.759	.
.	.	4r	.	.	.	.	.	.
2Am	A:min	8r	.	.	.	.	168.67	.
.	.	8A	The	.	.	.	.	.
.	.	8A	kind	.	.	.	.	.
.	.	8c	you	.	.	.	.	.
=93	=93	=93	=93	=93	=93	=93	=93	=93
2Am	A:min/4	8e	don't	1r	.	.	169.581	.
.	.	8f#	take	.	.	.	.	.
.	.	8e	home	.	.	.	.	.
.	.	8c	to	.	.	.	.	.
2Am	A:min	8c	mo-	.	.	.	170.492	.
.	.	4.e	-ther	.	.	.	.	.
=94	=94	=94	=94	=94	=94	=94	=94	=94
2GM	G:maj	8r	.	1r	.	.	171.403	.
.	.	8r	.	.	.	.	.	.
.	.	4r	.	.	.	.	.	.
2Am	A:min	8r	.	.	.	.	172.314	.
.	.	8e	And	.	.	.	.	.
.	.	8e	she	.	.	.	.	.
.	.	8g	will	.	.	.	.	.
=95	=95	=95	=95	=95	=95	=95	=95	=95
2Am	A:min/4	8a	ne-	1r	.	.	173.225	newline
.	.	8a	-ver	.	.	.	.	.
.	.	8e	let	.	.	.	.	.
.	.	8d	your	.	.	.	.	.
2Am	A:min	8e	spi-	.	.	.	174.147	.
.	.	8d	-rits	.	.	.	.	.
.	.	8d	down	.	.	.	.	.
.	.	[8c	_	.	.	.	.	.
=96	=96	=96	=96	=96	=96	=96	=96	=96
2GM	G:maj	2c]	_	1r	.	.	175.069	.
2Am	A:min	4r	.	.	.	.	175.991	.
.	.	8A	once	.	.	.	.	.
.	.	8G	you	.	.	.	.	.
=97	=97	=97	=97	=97	=97	=97	=97	=97
2Am	A:min/4	16A	get	1r	.	.	176.913	.
.	.	8G	her	.	.	.	.	.
.	.	8.A	off	.	.	.	.	.
.	.	8G	the	.	.	.	.	.
2Am	A:min	4d	street	.	.	.	177.835	.
.	.	4r	.	.	.	.	.	.
=98	=98	=98	=98	=98	=98	=98	=98	=98
2GM	G:maj	4.r	.	1r	.	.	178.756	.
.	.	4a	Blow	.	.	.	.	.
2Am	A:min	.	.	.	.	.	179.678	.
.	.	8e	da-	.	.	.	.	.
.	.	4e	-ddy!	.	.	.	.	.
=99	=99	=99	=99	=99	=99	=99	=99	=99
*>Letter>B	*>Letter>B	*>Letter>B	*>Letter>B	*>Letter>B	*>Letter>B	*>Letter>B	*>Letter>B	*>Letter>B
*>Label>Solo	*>Label>Solo	*>Label>Solo	*>Label>Solo	*>Label>Solo	*>Label>Solo	*>Label>Solo	*>Label>Solo	*>Label>Solo
2Am	A:min/4	1r	.	1r	.	.	180.6	newline
2Am	A:min	.	.	.	.	.	181.515	.
=100	=100	=100	=100	=100	=100	=100	=100	=100
2GM	G:maj/b7	1r	.	1r	.	.	182.429	.
2Am	A:min	.	.	.	.	.	183.344	.
=101	=101	=101	=101	=101	=101	=101	=101	=101
2Am	A:min/4	1r	.	1r	.	.	184.259	.
2Am	A:min	.	.	.	.	.	185.173	.
=102	=102	=102	=102	=102	=102	=102	=102	=102
2GM	G:maj/b7	1r	.	1r	.	.	186.088	.
2Am	A:min	.	.	.	.	.	187.003	.
=103	=103	=103	=103	=103	=103	=103	=103	=103
*>Label>>Fadeout	*>Label>>Fadeout	*>Label>>Fadeout	*>Label>>Fadeout	*>Label>>Fadeout	*>Label>>Fadeout	*>Label>>Fadeout	*>Label>>Fadeout	*>Label>>Fadeout
2Am	A:min/4	1r	.	1r	.	.	187.917	newline
2Am	A:min	.	.	.	.	.	188.845	.
=104	=104	=104	=104	=104	=104	=104	=104	=104
2GM	G:maj/b7	1r	.	1r	.	.	189.773	.
2Am	A:min	.	.	.	.	.	190.701	.
=105	=105	=105	=105	=105	=105	=105	=105	=105
2Am	A:min/4	1r	.	1r	.	.	191.628	.
2Am	A:min	.	.	.	.	.	192.556	.
=106	=106	=106	=106	=106	=106	=106	=106	=106
2GM	G:maj/b7	1r	.	1r	.	.	193.484	.
2Am	A:min	.	.	.	.	.	194.412	.
=107	=107	=107	=107	=107	=107	=107	=107	=107
2Am	A:min/4	1r	.	1r	.	.	195.339	newline
2Am	A:min	.	.	.	.	.	195.692	.
=108	=108	=108	=108	=108	=108	=108	=108	=108
2GM	G:maj/b7	1r	.	1r	.	.	196.044	.
2Am	A:min	.	.	.	.	.	196.397	.
=109	=109	=109	=109	=109	=109	=109	=109	=109
2Am	A:min/4	1r	.	1r	.	.	196.749	.
2Am	A:min	.	.	.	.	.	197.102	.
=110	=110	=110	=110	=110	=110	=110	=110	=110
2GM	G:maj/b7	1r	.	1r	.	.	197.454	.
2Am	A:min	.	.	.	.	.	197.807	.
1r;	1r	r;	.	r;	.	.	198.159	.
1r;	1r	r;	.	r;	.	.	201.848	.
*-	*-	*-	*-	*-	*-	*-	*-	*-
!!!BillboardChartDate: 1981/12/19
!!!BillboardPeak: 16
!!!BillboardWeeksOnChart: 24
!!!COC: Rick James
!!!EMD: Original mcgill transcription had change to 5/4 before chorus, but I think it's all just slightly rubato 4/4. -Nat
!!!EMD: These section names don't make sense. The "bridge" is more of a prechorus. The "interlude" is the chorus! -Nat
!!!ENC: Nathaniel Condit-Schultz
!!!EST: Awating manual error checking and editing.
!!!OTL: Super Freak (Part I)
!!!RDF**chordsym: original McGill chord annotation + (implied pitch class set, with bass pitch in first position)
!!!RDF**harmony: **recip + pitch class of root + harmonic quality
!!!RDF**leadinstrument: original McGill primary instrumentation annotation
!!!RDF**phrase: newline = linebreak in original McGill transcription
!!!RDF**timestamp: McGill audio timestamp in seconds
!!!RDT: 2017/01/12/
!!!SampleActualRank: 72
!!!SampleID#: 0812
!!!SampleTargetRank: 74
!!!MBID: 8656f944-0ac9-4c91-9280-087627b1452a